X: 1
T: Quin Abbey
M: 9/8
L: 1/8
R: slip jig
K: Emin
|:EFG ABA GFD|E2G/E/ AFA GFD|EFG ABA GFD|E2G/E/ AFA GFD:|
|:EGE AcA GFD|E2G/E/ AFA GFD|EGE AcA GFD|E2G/E/ AFA GFD:|
|:GBd cAF GFG|G2B/d/ cAF FDF|GBd cAF GFG|G2B/d/ cAF FDF:|
|:EFG A3 BdB|G2A/B/ FGA GFD|EFG A3 BdB|G2A/B/ FGA GFD:|
